client/src/resources/socials/x.svg

<svg width="31" height="30" viewBox="0 0 31 30" fill="none" xmlns="http://www.w3.org/2000/svg">
<g clip-path="url(#clip0_1128_226)">
<path d="M9.07617 7.69873L20.1712 22.205H21.8712L10.9024 7.69873H9.07617Z" fill="white"/>
<path d="M15.5 0C7.21625 0 0.5 6.71625 0.5 15C0.5 23.2838 7.21625 30 15.5 30C23.7838 30 30.5 23.2838 30.5 15C30.5 6.71625 23.7838 0 15.5 0ZM19.3288 24.04L14.4913 17.7213L8.96375 24.04H5.89125L13.0575 15.8475L5.5 5.96H11.8275L16.195 11.7362L21.2488 5.96H24.3175L17.6162 13.6175L25.5 24.0388L19.3288 24.04Z" fill="white"/>
</g>
<defs>
<clipPath id="clip0_1128_226">
<rect width="30" height="30" fill="white" transform="translate(0.5)"/>
</clipPath>
</defs>
</svg>

<svg xmlns="http://www.w3.org/2000/svg" width="31" height="30" fill="none"><g fill="#fff" clip-path="url(#a)"><path d="m9.076 7.699 11.095 14.506h1.7L10.902 7.699z"/><path d="M15.5 0C7.216 0 .5 6.716.5 15s6.716 15 15 15 15-6.716 15-15-6.716-15-15-15m3.829 24.04-4.838-6.319-5.527 6.319H5.89l7.166-8.192L5.5 5.96h6.328l4.367 5.776 5.054-5.776h3.069l-6.702 7.658 7.884 10.42z"/></g><defs><clipPath id="a"><path fill="#fff" d="M.5 0h30v30H.5z"/></clipPath></defs></svg>
